svgs/sharp-regular/sd-cards.svg

<svg xmlns="http://www.w3.org/2000/svg" viewBox="0 0 448 512"><!--! Font Awesome Pro 6.6.0 by @fontawesome - https://fontawesome.com License - https://fontawesome.com/license (Commercial License) Copyright 2024 Fonticons, Inc. --><path d="M400 368l0-320L227.9 48 144 131.9 144 368l256 0zM96 112L208 0 400 0l48 0 0 48 0 320 0 48-48 0-256 0-48 0 0-48 0-256zM48 96l0 24 0 344 312 0 24 0 0 48-24 0L24 512 0 512l0-24L0 120 0 96l48 0zm256 0l0 64 0 16-32 0 0-16 0-64 0-16 32 0 0 16zm64 0l0 64 0 16-32 0 0-16 0-64 0-16 32 0 0 16z"/></svg>

<svg xmlns="http://www.w3.org/2000/svg" viewBox="0 0 448 512"><!--! Font Awesome Pro 6.4.0 by @fontawesome - https://fontawesome.com License - https://fontawesome.com/license (Commercial License) Copyright 2023 Fonticons, Inc. --><path d="M400 368V48H227.9L144 131.9V368H400zM96 112L208 0H400h48V48 368v48H400 144 96V368 112zM48 96v24V464H360h24v48H360 24 0V488 120 96H48zm256 0v64 16H272V160 96 80h32V96zm64 0v64 16H336V160 96 80h32V96z"/></svg>
